!!!OTL: 422. Nachbars Töffel.
!!!ARE: Europa, Mitteleuropa, Deutschland, Schwaben (?)
!!!SCT: B0422
!!!TXL: @@DE
!!!YEM: Copyright 1995, estate of Helmut Schaffrath.
**kern	**text
*ICvox	*
*Ivox	*
*clefG2	*
*M2/4	*
*k[f#]	*
*G:	*
!LO:TX:a:t=Etwas raſch.	!
{8d	Wa-
8d	-rum
=1	=1
8d	blickt
8b	doch
8cc	ſo
8b	ver-
=2	=2
8b	-ſtoh-
8a}	-len
{8a	mich
8g	des
=3	=3
8g	Nach-
8f#	-bars
8e	Töf-
8d	-fel
=4	=4
8dL	an,
8gJ}	.
{8g	da
8b	er
=5	=5
8b	mir
8a	doch
8a	un-
8g	-ver-
=6	=6
8f#	-hoh-
8e}	-len
{8g	in
8f#	das
=7	=7
8a	Au-
8g	-ge
8f#	ſeh-
8e	-en
=8	=8
8d	kann?
8r}	.
{8a	Jch
8a	muß
=9	=9
8g	nur
8f#	die
8e	Mut-
8d	-ter
=10	=10
8d	fra-
8g}	-gen,
{8a	was
8b	er
=11	=11
8cc	ſo
8cc	ver-
8a	-ſtoh-
8g	-len
=12	=12
4f#}	blickt
{8d	denn
8d	wollt'
=13	=13
8dd	ich's
8dd	ihm
8cc	ſel-
8b	-ber
=14	=14
8dd	ſa-
8cc}	-gen,
{8a	ließ'
8g	es
=15	=15
16f#L	doch
16gJ	.
16aL	recht
16bJ	.
8cc	un-
8f#	-ge-
=16	=16
8g	-ſchickt.
8r}	.
==	==
!!!AGN: Liebes - Lied, Liebes - Lust
!!!GTL: Liebeslieder - Liebeslust
!!!ONB: ESAC (Essen Associative Code) Database: BOEHME
!!!AMT: simple duple
!!!AIN: vox
!!!EED: Helmut Schaffrath
!!!EEV: 1.0
!!Schwäbiſch (?) Kretʒſchmers VL. I. 141.
!!@@COMMENT:"Außer Kretʒſchmer's "Volksliedern", davon die erſten Hefte 1838 erſchienen, bringen faſt alle
!!Liederſammlungen das witʒige Lied mit ſeiner hübſchen Melodie, ʒ. B. Härtel's Liederlexikon",
!!Schubert's Concordia", Peter's "Liederſchatʒ". Der Dichter iſt unbekannt. Für ſchwäbiſch kann
!!ich das Lied nicht halten, daʒu fehlt der Dialekt und hat die Muſik nicht ſchwäbiſchen Charakter.
!!Das Ganʒe klingt mir wie ein Couplet-Geſang, der in Norddeutſchland um 1830 entſtanden ſein mag."
!!@@END:
!!!URL-scan: https://archive.org/details/BoehmeVtLieder1895/page/n345/mode/2up
!!!ENC: Anna Maria Matuszewska
!!!EEV: 2024/08/07
*-	*-
